X: 69
T: The Welch Jig
R: jig
M: 6/8
L: 1/8
Z: 2012 John Chambers <jc:trillian.mit.edu>
B: Saml. Ann & Peter Thompson "Twenty Four Country Dances for the Year 1791", London 1791, p.35 #1
K: D
% - - - - - - - - - - - - - - - - - - - - - - - - -
|:\
e2e e2e | efd cBA | d2d fed | cAc e3 |\
e2e e2e | efd cBA | d2g faf | gec d2 :|
|: f/g/ |\
afa geg | fed cBA | d2d fed | cAc efg |\
afa geg | fed cBA | d2g (f/g/a)f | gec d2 :|
% - - - - - - - - Dance description - - - - - - - -
%%begintext align
%% 1st Lady set to the 2d Gent & turn the 3d .|.
%% the Gent. do the same :|.
%% lead down the middle up again & cast off .|:
%% Right & left :|:
%%endtext

%%sep 1 1 500
%%sep 1 1 500
